X:52
T: MUTTER ACH MUTTER ES HUNGERT MICH
N: Z0053
O: Europa, Mitteleuropa, Deutschland
N: Durchkomponiertes Lied (4 Strophen).
R: Sagen - Lied, Romanze,
M: 4/4
L: 1/16
K: C
 | E4E2E2E4E2E2 | F4F4F4z4 |
E4E4G4E2C2 | D4D4D8 |
c4^F4G4B2d2 | d8d2c2A2^F2 | G8z8 |
E4E4E6E2 | F6G2A4z4 |
G4G4A2G2F2E2 | D4D2E2C4z4 |
G8A4c3A | G8z6
G2 | G8A6F2 | E8z6
E2 | E4E4E6E2 | F4F4F8 |
E4E4G4E2C2 | D4D4D4z4 |
c2c2z2^F2G2G2z2B2 | c4^F4G4z4 |
c4F4G4B2d2 | d8d2c2A2^F2 | G8z6
E2 | E4E4E6E2 | F4F4F8 |
G4G4A4A2A2 | B12B4 | c12
C2C2 | C12C4 | C8z8

@@@ Tune index: 9810
